icons/karma-dark.svg

<svg width="256" height="256" viewBox="0 0 256 256" fill="none" xmlns="http://www.w3.org/2000/svg">
<path d="M196 0H60C26.8629 0 0 26.8629 0 60V196C0 229.137 26.8629 256 60 256H196C229.137 256 256 229.137 256 196V60C256 26.8629 229.137 0 196 0Z" fill="#282828"/>
<path d="M146.469 163.575L173.76 216.196H216.897L168.012 122.83L146.469 163.575ZM59.5062 191.791L79.4853 167.459L111.432 216.196L90.9259 118.435L73.6127 155.248L59.5062 191.791Z" fill="#409B83"/>
<path d="M59.5062 191.789L90.9259 118.428L70.9524 142.775L39 94.0339L59.5062 191.789ZM212.786 39.5436H169.649L143.227 90.0025V39.5422H103.653V91.8742L124.752 192.391L129.667 216.195H143.226V172.033L212.786 39.5436Z" fill="#56C5A8"/>
</svg>

<svg xmlns="http://www.w3.org/2000/svg" width="256" height="256" fill="none"><path fill="#282828" d="M196 0H60C26.863 0 0 26.863 0 60v136c0 33.137 26.863 60 60 60h136c33.137 0 60-26.863 60-60V60c0-33.137-26.863-60-60-60"/><path fill="#409B83" d="m146.469 163.575 27.291 52.621h43.137l-48.885-93.366zm-86.963 28.216 19.98-24.332 31.946 48.737-20.506-97.761-17.313 36.813z"/><path fill="#56C5A8" d="m59.506 191.789 31.42-73.361-19.974 24.347L39 94.034zm153.28-152.245h-43.137l-26.422 50.459v-50.46h-39.574v52.331l21.099 100.517 4.915 23.804h13.559v-44.162z"/></svg>
